dist/img/m.svg

<svg width="399" height="410" viewBox="0 0 399 410" fill="none" xmlns="http://www.w3.org/2000/svg">
<path d="M1.16325 1.62007V408.6H66.1432V79.1401H77.5433L165.323 261.54H232.583L320.933 79.1401H332.333V408.6H397.313V1.62007H290.723L205.223 182.88H193.823L107.183 1.62007H1.16325Z" fill="#1B1B1B"/>
<path d="M1.16325 1.62007V0.620071H0.163245V1.62007H1.16325ZM1.16325 408.6H0.163245V409.6H1.16325V408.6ZM66.1432 408.6V409.6H67.1432V408.6H66.1432ZM66.1432 79.1401V78.1401H65.1432V79.1401H66.1432ZM77.5433 79.1401L78.4443 78.7064L78.1718 78.1401H77.5433V79.1401ZM165.323 261.54L164.422 261.974L164.695 262.54H165.323V261.54ZM232.583 261.54V262.54H233.21L233.483 261.976L232.583 261.54ZM320.933 79.1401V78.1401H320.306L320.033 78.7042L320.933 79.1401ZM332.333 79.1401H333.333V78.1401H332.333V79.1401ZM332.333 408.6H331.333V409.6H332.333V408.6ZM397.313 408.6V409.6H398.313V408.6H397.313ZM397.313 1.62007H398.313V0.620071H397.313V1.62007ZM290.723 1.62007V0.620071H290.089L289.819 1.19345L290.723 1.62007ZM205.223 182.88V183.88H205.857L206.128 183.307L205.223 182.88ZM193.823 182.88L192.921 183.311L193.193 183.88H193.823V182.88ZM107.183 1.62007L108.085 1.18882L107.814 0.620071H107.183V1.62007ZM0.163245 1.62007V408.6H2.16325V1.62007H0.163245ZM1.16325 409.6H66.1432V407.6H1.16325V409.6ZM67.1432 408.6V79.1401H65.1432V408.6H67.1432ZM66.1432 80.1401H77.5433V78.1401H66.1432V80.1401ZM76.6422 79.5737L164.422 261.974L166.224 261.106L78.4443 78.7064L76.6422 79.5737ZM165.323 262.54H232.583V260.54H165.323V262.54ZM233.483 261.976L321.833 79.576L320.033 78.7042L231.683 261.104L233.483 261.976ZM320.933 80.1401H332.333V78.1401H320.933V80.1401ZM331.333 79.1401V408.6H333.333V79.1401H331.333ZM332.333 409.6H397.313V407.6H332.333V409.6ZM398.313 408.6V1.62007H396.313V408.6H398.313ZM397.313 0.620071H290.723V2.62007H397.313V0.620071ZM289.819 1.19345L204.319 182.453L206.128 183.307L291.628 2.04669L289.819 1.19345ZM205.223 181.88H193.823V183.88H205.223V181.88ZM194.725 182.449L108.085 1.18882L106.281 2.05133L192.921 183.311L194.725 182.449ZM107.183 0.620071H1.16325V2.62007H107.183V0.620071Z" fill="white"/>
</svg>

<svg width="399" height="410" fill="none" xmlns="http://www.w3.org/2000/svg"><path d="M1.163 1.62V408.6h64.98V79.14h11.4l87.78 182.4h67.26l88.35-182.4h11.4V408.6h64.98V1.62h-106.59l-85.5 181.26h-11.4L107.183 1.62H1.163z" fill="#1B1B1B"/><path d="M1.163 1.62v-1h-1v1h1zm0 406.98h-1v1h1v-1zm64.98 0v1h1v-1h-1zm0-329.46v-1h-1v1h1zm11.4 0l.901-.434-.272-.566h-.629v1zm87.78 182.4l-.901.434.273.566h.628v-1zm67.26 0v1h.627l.273-.564-.9-.436zm88.35-182.4v-1h-.627l-.273.564.9.436zm11.4 0h1v-1h-1v1zm0 329.46h-1v1h1v-1zm64.98 0v1h1v-1h-1zm0-406.98h1v-1h-1v1zm-106.59 0v-1h-.634l-.27.573.904.427zm-85.5 181.26v1h.634l.271-.573-.905-.427zm-11.4 0l-.902.431.272.569h.63v-1zM107.183 1.62l.902-.431-.271-.569h-.631v1zm-107.02 0V408.6h2V1.62h-2zm1 407.98h64.98v-2H1.163v2zm65.98-1V79.14h-2V408.6h2zm-1-328.46h11.4v-2h-11.4v2zm10.5-.566l87.779 182.4 1.802-.868-87.78-182.4-1.802.868zm88.68 182.966h67.26v-2h-67.26v2zm68.16-.564l88.35-182.4-1.8-.872-88.35 182.4 1.8.872zm87.45-181.836h11.4v-2h-11.4v2zm10.4-1V408.6h2V79.14h-2zm1 330.46h64.98v-2h-64.98v2zm65.98-1V1.62h-2V408.6h2zm-1-407.98h-106.59v2h106.59v-2zm-107.494.573l-85.5 181.26 1.809.854 85.5-181.26-1.809-.854zM205.223 181.88h-11.4v2h11.4v-2zm-10.498.569l-86.64-181.26-1.804.862 86.64 181.26 1.804-.862zM107.183.62H1.163v2h106.02v-2z" fill="#fff"/></svg>
